X:136
T:Sonata K.77 in D minor (Moderato e cantabile)
C:Scarlatti, D.
M:3/4
L:1/8
Q:1/4=66
K:Dmin
|:A2|d4 cd|e2 dc B2|c4 Bc|d4 A2|
G4 AB|c2 BA G2|F2 GA Bc|d4:|

